X: 674
T: Johnny has Gone to France   #3
B: Francis O'Neill: "The Dance Music of Ireland" (1907) #674
R: reel
%S: s:2 b:12(6+6)
Z: Frank Nordberg - http://www.musicaviva.com
F: http://www.musicaviva.com/abc/tunes/ireland/oneill-1001/0674/oneill-1001-0674-1.abc
N: Compacted via 2 repeats with multiple endings (of different styles) [JC]
M: C|
L: 1/8
K: G
%%slurgraces 1
%%graceslurs 1
"^A"\
|: g2fg dcAc | dBcA FGAF | dg(3({a}gfg) dcA^c |[1 dBcA dBcA :|
[2 dBcA BGG2 "^B"|: dg (3({a}gfg) gbag |[1 fdcA FGAF :|[2 fdcA AGG2 |]
|| g2dg gbag | fdcA defg | (3(aba) ag fgag | fdcA AGG2 |]
